X: 21172
T: Bohd na Hesudh
%R: strathspey
B: James Oswald "The Caledonian Pocket Companion" v.2 p.117 #2
Z: 2018 John Chambers <jc:trillian.mit.edu>
M: C
L: 1/16
K: D
"_Brisk"d2 |\
AD3F3D A3DD3d | AD3F3D A4Ae3 |\
BE3G3E  B3EEe3 | B3EG3A B4B3d |
A3Bd3e f3ae3f | d3AA3F A3Bd3e |\
f3de3B d3BA3F | EEE2 G3A B4B2 :|
|: f2 |\
a3fd3f (agfe) d3f | a3fd3f a4a3f |\
b3ee3f b3ee3f | eee2 f3d B4 B3d |
A3Bd3e f3ae3f | d3AA3F A3Bd3e |\
f3de3B d3AB3d | EEE2 G3A B4B2 :|


